lib/radiotmp/nrk-some-tommelopp-expressive--active.svg

<svg width="24" height="24" viewBox="0 0 24 24" fill="none" xmlns="http://www.w3.org/2000/svg">
<path fill-rule="evenodd" clip-rule="evenodd" d="M11 2C9.34315 2 8 3.34315 8 5V19C8 20.1046 8.89352 21 9.99809 21H18.53C20.5158 21 22.201 19.543 22.488 17.578L23.3641 11.578C23.7166 9.16438 21.8453 7 19.4061 7H14V5C14 3.34315 12.6569 2 11 2ZM2 6C1.44772 6 1 6.44772 1 7C1 7.55228 1.44772 8 2 8H3C3.55228 8 4 8.44772 4 9V20C4 20.5523 3.55228 21 3 21H2C1.44772 21 1 21.4477 1 22C1 22.5523 1.44772 23 2 23H3C4.65685 23 6 21.6569 6 20V9C6 7.34315 4.65685 6 3 6H2ZM11 4C10.4477 4 10 4.44772 10 5V6H12V5C12 4.44772 11.5523 4 11 4Z" fill="black"/>
</svg>

<svg xmlns="http://www.w3.org/2000/svg" viewBox="0 0 24 24"><path fill="#000" fill-rule="evenodd" d="M11 2a3 3 0 0 0-3 3v14c0 1.105.894 2 1.998 2h8.532a4 4 0 0 0 3.958-3.422l.876-6A4 4 0 0 0 19.406 7H14V5a3 3 0 0 0-3-3ZM2 6a1 1 0 0 0 0 2h1a1 1 0 0 1 1 1v11a1 1 0 0 1-1 1H2a1 1 0 1 0 0 2h1a3 3 0 0 0 3-3V9a3 3 0 0 0-3-3H2Zm9-2a1 1 0 0 0-1 1v1h2V5a1 1 0 0 0-1-1Z" clip-rule="evenodd"/></svg>
